build/images/content/icons/icon-3.svg

<svg width="100" height="100" viewBox="0 0 100 100" fill="none" xmlns="http://www.w3.org/2000/svg">
<path d="M6.20312 53.3066V18.3812C6.20312 17.4081 6.59295 16.4749 7.28684 15.7868C7.98072 15.0987 8.92184 14.7122 9.90314 14.7122H65.3132C66.2945 14.7122 67.2356 15.0987 67.9295 15.7868C68.6234 16.4749 69.0132 17.4081 69.0132 18.3812V35.6159" stroke="#393C4C" stroke-width="2" stroke-linecap="round" stroke-linejoin="round"/>
<path d="M41.5399 61.6663H8.53997C7.06976 61.6636 5.66067 61.0826 4.62201 60.0508C3.58334 59.0189 3 57.6205 3 56.1626V53.9314H27.96L29.31 56.6882H42.21" stroke="#393C4C" stroke-width="2" stroke-linecap="round" stroke-linejoin="round"/>
<path d="M6.20312 20.9202H69.0131" stroke="#393C4C" stroke-width="2" stroke-linecap="round" stroke-linejoin="round"/>
<path d="M69.0424 90.1069C84.0314 90.1069 96.1824 78.0575 96.1824 63.1937C96.1824 48.33 84.0314 36.2805 69.0424 36.2805C54.0534 36.2805 41.9023 48.33 41.9023 63.1937C41.9023 78.0575 54.0534 90.1069 69.0424 90.1069Z" stroke="#F91A2B" stroke-width="2" stroke-miterlimit="10"/>
<path d="M78.7294 70.1946V75.7974H59.3594V70.1946" stroke="#F91A2B" stroke-width="4" stroke-linecap="round" stroke-linejoin="round"/>
<path d="M69.043 65.3652V48.5569" stroke="#F91A2B" stroke-width="4" stroke-linecap="round" stroke-linejoin="round"/>
<path d="M74.7825 60.9126L69.0425 66.5947L63.3125 60.9126" stroke="#F91A2B" stroke-width="4" stroke-linecap="round" stroke-linejoin="round"/>
<path d="M44.8108 31.5901C44.3658 31.1466 43.8367 30.7947 43.2541 30.5546C42.6715 30.3145 42.0468 30.1909 41.4158 30.1909C40.7849 30.1909 40.1602 30.3145 39.5776 30.5546C38.9949 30.7947 38.4659 31.1466 38.0208 31.5901L37.6108 31.9967L37.1908 31.5901C36.2814 30.7434 35.0752 30.2811 33.828 30.3011C32.5807 30.321 31.3903 30.8217 30.5089 31.6971C29.6274 32.5724 29.1243 33.7537 29.106 34.9906C29.0877 36.2274 29.5557 37.4228 30.4108 38.3234L30.8208 38.73L37.6108 45.4634L44.4008 38.73L44.8108 38.3234C45.7091 37.4294 46.2135 36.2188 46.2135 34.9568C46.2135 33.6947 45.7091 32.4841 44.8108 31.5901Z" fill="#393C4C" stroke="#393C4C" stroke-width="2" stroke-linecap="round" stroke-linejoin="round"/>
</svg>

<svg width="100" height="100" fill="none" xmlns="http://www.w3.org/2000/svg"><path d="M6.203 53.307V18.38c0-.973.39-1.906 1.084-2.594a3.716 3.716 0 012.616-1.075h55.41c.981 0 1.923.387 2.617 1.075a3.653 3.653 0 011.083 2.594v17.235M41.54 61.666h-33a5.574 5.574 0 01-3.918-1.615A5.48 5.48 0 013 56.163V53.93h24.96l1.35 2.757h12.9M6.203 20.92h62.81" stroke="#393C4C" stroke-width="2" stroke-linecap="round" stroke-linejoin="round"/><path d="M69.042 90.107c14.99 0 27.14-12.05 27.14-26.913 0-14.864-12.15-26.913-27.14-26.913-14.989 0-27.14 12.049-27.14 26.913s12.151 26.913 27.14 26.913z" stroke="#F91A2B" stroke-width="2" stroke-miterlimit="10"/><path d="M78.73 70.195v5.602H59.36v-5.602m9.683-4.83V48.557m5.739 12.356l-5.74 5.682-5.73-5.682" stroke="#F91A2B" stroke-width="4" stroke-linecap="round" stroke-linejoin="round"/><path d="M44.81 31.59a4.825 4.825 0 00-6.79 0l-.41.407-.42-.407a4.822 4.822 0 00-3.362-1.289 4.82 4.82 0 00-3.32 1.396 4.74 4.74 0 00-1.402 3.294 4.738 4.738 0 001.305 3.332l.41.407 6.79 6.733 6.79-6.733.41-.407a4.75 4.75 0 001.403-3.366 4.75 4.75 0 00-1.403-3.367z" fill="#393C4C" stroke="#393C4C" stroke-width="2" stroke-linecap="round" stroke-linejoin="round"/></svg>
